X:1
T:Title
%%score { ( 1 4 ) | ( 2 3 ) }
L:1/8
M:6/8
K:A
V:1 treble nm="Grand Piano"
V:4 treble 
V:2 bass 
V:3 bass 
V:1
 z3 z2[Q:1/4=90] E | [A,CA]2 [A,EA] BcB | A2 F [CE]2 [CE] | c2 c e>dc | B3- B2 E | %5
 [Ec]2 [Ec] [EB]2 [EG] | E-[EB][Ec] [Fd]2 [Fd] | cBA B2 G | A3- A2 [CA] | [CA]2 [EA] [EG]2 F | %10
 A2 F [CE]2 [CE] | c2 e A2 c | B3- B2 E | c2 c edc | .[FB]3 z3 | [Ec][FB][A,FA] [Ec]2 [DB] | %16
 [CA]6[Q:1/4=120] |[M:1/8] c |[M:3/4] e4 z c | e4 z c | A3 [GB]3 | c4- cB | A3 B3 | c3 [A^d]3 | %24
 [Ge]6- | [Ge]4 z d | c3 e3 | A4- AA | B3 c3 | d4 z [Fd] | c3 A3 | e4 z E | A3 [GB]3 | %33
[M:13/8] [CEA]- [CEA]3 z z z z z z z z2 |[M:3/4] [FA]6 | [CEA]6 |] %36
V:2
 z3 z2 E, | A,,2 C, [E,G,E]2 [E,G,D] | [F,A,C]2 [D,A,D] [A,,A,]2 [A,,A,] | z3 .E3 | %4
 [E,G,E]3- [E,G,E]2 E, | [A,,A,]2 [A,,A,] [B,,G,]2 [D,B,] | [C,A,][B,,G,][A,,A,] [D,A,]2 [D,A,] | %7
 A,D[E,CE] [E,DE]2 [E,B,E] | [A,CE]3- [A,CE]2 [A,,A,] | [A,,A,]2 [C,A,] [D,A,]2 [D,A,D] | %10
 [F,A,D]2 [D,A,D] [A,,A,]2 [A,,A,] | [A,E]2 [A,CE] [A,CE]2 [A,E] | [E,G,E]3- [E,G,E]2 E, | %13
 [A,E]2 [A,E] E-[G,B,E][A,E] | .[D,F,]2 [C,^A,] [B,,B,]2 [B,,G,] | .A,3 z3 | [A,,A,]6 | %17
[M:1/8] [A,E] |[M:3/4] [A,CE]4 z [A,E] | [A,CE]4 z [A,E] | [F,CF]3 [E,D]3 | %21
 [A,CA]4- [A,CA][K:bass][E,B,E] | [C,A,C]3 [E,B,E]3 | [A,CA]3 [F,B,]3 | [E,B,]6- | %25
 [E,B,]4 z [E,G,E] | [A,E]3 [A,CE]3 | [A,CE]4- [A,CE][A,CE] | [G,B,E]3 [=G,A,E]3 | %29
 [F,A,D]4 z [D,A,] | [E,A,E]3 [E,CE]3 | [E,CE]4 z [E,A,] | [E,CE]3 [E,D]3 | %33
[M:13/8] [A,,A,]- [A,,A,]3 z z z z z z z z2 |[M:3/4] [D,D]6 | [A,,A,]6 |] %36
V:3
 x6 | x6 | x6 | [A,E]2 [A,E] [A,C]>[G,B,][A,E] | x6 | x6 | x6 | .[E,E]3 z3 | x6 | x6 | x6 | x6 | %12
 x6 | z3 .[A,C]3 | x6 | C,D,D, [E,A,]2 [E,G,] | x6 |[M:1/8] x |[M:3/4] x6 | x6 | x6 | %21
 x5[K:bass] x | x6 | x6 | x6 | x6 | x6 | x6 | x6 | x6 | x6 | x6 | x6 |[M:13/8] x13 |[M:3/4] x6 | %35
 x6 |] %36
V:4
 x6 | x6 | x6 | x6 | x6 | x6 | .A3 z3 | x6 | x6 | x6 | x6 | x6 | x6 | x6 | z B,[Fc] [Fd]2 [Ed] | %15
 x6 | x6 |[M:1/8] x |[M:3/4] x6 | x6 | x6 | x6 | x6 | x6 | x6 | x6 | x6 | x6 | x6 | x6 | x6 | x6 | %32
 x6 |[M:13/8] x13 |[M:3/4] x6 | x6 |] %36

